build/documents/JpgOutline.svg

<svg xmlns="http://www.w3.org/2000/svg" fill="none" viewBox="0 0 24 24" focusable="false"><path d="M0 0H24V24H0z"/><path fill="#74767B" fill-rule="evenodd" d="M9.29275 8.14996C9.29275 9.53067 10.412 10.65 11.7927 10.65C13.1735 10.65 14.2927 9.53067 14.2927 8.14996C14.2927 6.76925 13.1735 5.64996 11.7927 5.64996C10.412 5.64996 9.29275 6.76925 9.29275 8.14996ZM10.5927 8.14996C10.5927 8.81271 11.13 9.34996 11.7927 9.34996C12.4555 9.34996 12.9927 8.81271 12.9927 8.14996C12.9927 7.48722 12.4555 6.94996 11.7927 6.94996C11.13 6.94996 10.5927 7.48722 10.5927 8.14996Z"/><path fill="#74767B" fill-rule="evenodd" d="M20.65 6C20.65 4.34315 19.3069 3 17.65 3L9.65 3C7.99314 3 6.65 4.34315 6.65 6L6.65 16C6.65 17.6569 7.99314 19 9.65 19L9.65123 19L9.65 19.002L17.65 19.002C19.3069 19.002 20.65 17.6589 20.65 16.002L20.65 6ZM18.6452 11.2897L19.35 12.3092L19.35 6C19.35 5.06112 18.5888 4.3 17.65 4.3L9.64995 4.3C8.71107 4.3 7.94995 5.06112 7.94995 6L7.94995 16C7.94995 16.9389 8.71107 17.7 9.64995 17.7L10.4456 17.7L14.288 11.4125C15.2686 9.8079 17.5757 9.74288 18.6452 11.2897ZM17.65 17.7C18.5888 17.7 19.35 16.9389 19.35 16L19.35 14.5951L17.5758 12.029C17.0411 11.2556 15.8875 11.2881 15.3972 12.0904L11.9692 17.7L17.65 17.7Z"/><path fill="#74767B" fill-rule="evenodd" d="M20.65 6C20.65 4.34315 19.3069 3 17.65 3L9.65 3C7.99314 3 6.65 4.34315 6.65 6L6.65 16C6.65 17.6569 7.99314 19 9.65 19L9.65123 19L9.65 19.002L17.65 19.002C19.3069 19.002 20.65 17.6589 20.65 16.002L20.65 6ZM18.6452 11.2897L19.35 12.3092L19.35 6C19.35 5.06112 18.5888 4.3 17.65 4.3L9.64995 4.3C8.71107 4.3 7.94995 5.06112 7.94995 6L7.94995 16C7.94995 16.9389 8.71107 17.7 9.64995 17.7L10.4456 17.7L14.288 11.4125C15.2686 9.8079 17.5757 9.74288 18.6452 11.2897ZM17.65 17.7C18.5888 17.7 19.35 16.9389 19.35 16L19.35 14.5951L17.5758 12.029C17.0411 11.2556 15.8875 11.2881 15.3972 12.0904L11.9692 17.7L17.65 17.7Z"/><path fill="#74767B" d="M4.65 8.35C4.29101 8.35 4 8.64102 4 9L4 18.4C4 20.1949 5.45507 21.65 7.25 21.65L15.65 21.65C16.009 21.65 16.3 21.359 16.3 21C16.3 20.641 16.009 20.35 15.65 20.35L7.25 20.35C6.17304 20.35 5.3 19.477 5.3 18.4L5.3 9C5.3 8.64102 5.00898 8.35 4.65 8.35Z"/><path fill="#74767B" d="M4.65 8.35C4.29101 8.35 4 8.64102 4 9L4 18.4C4 20.1949 5.45507 21.65 7.25 21.65L15.65 21.65C16.009 21.65 16.3 21.359 16.3 21C16.3 20.641 16.009 20.35 15.65 20.35L7.25 20.35C6.17304 20.35 5.3 19.477 5.3 18.4L5.3 9C5.3 8.64102 5.00898 8.35 4.65 8.35Z"/></svg>

<svg xmlns="http://www.w3.org/2000/svg" fill="none" viewBox="0 0 24 24" focusable="false"><g fill="#74767B"><path fill-rule="evenodd" d="M9.29 8.14c0 1.39 1.12 2.51 2.5 2.51s2.5-1.12 2.5-2.51a2.5 2.5 0 0 0-5 0m1.3 0c0 .67.54 1.2 1.2 1.2s1.2-.53 1.2-1.2c0-.66-.54-1.2-1.2-1.2s-1.2.54-1.2 1.2"/><path fill-rule="evenodd" d="M20.64 6c0-1.66-1.34-3-3-3h-8c-1.65 0-3 1.34-3 3v10c0 1.65 1.35 3 3 3h.01-.01 8c1.66 0 3-1.35 3-3zm-2 5.28.7 1.02V6c0-.94-.76-1.71-1.7-1.71h-8c-.93 0-1.7.77-1.7 1.71v10c0 .93.77 1.7 1.7 1.7h.8l3.84-6.29c.98-1.61 3.29-1.67 4.36-.13m-1 6.42c.94 0 1.7-.77 1.7-1.7v-1.41l-1.77-2.57a1.3 1.3 0 0 0-2.18.07l-3.43 5.61z"/><path d="M4.64 8.35c-.35 0-.64.29-.64.65v9.4a3.25 3.25 0 0 0 3.25 3.25h8.39c.36 0 .65-.3.65-.65 0-.36-.29-.65-.65-.65H7.25c-1.08 0-1.95-.88-1.95-1.95V9c0-.36-.3-.65-.66-.65"/></g></svg>
